static/img/kroki/ad279c50403ee9158b0ba0f5db56bf04.svg

<?xml version="1.0" encoding="us-ascii" standalone="no"?><svg xmlns="http://www.w3.org/2000/svg" xmlns:xlink="http://www.w3.org/1999/xlink" contentStyleType="text/css" height="374px" preserveAspectRatio="none" style="width:625px;height:374px;" version="1.1" viewBox="0 0 625 374" width="625px" zoomAndPan="magnify"><defs/><g><!--class azure_cosmos_db_postgresql_cluster_server--><g id="elem_azure_cosmos_db_postgresql_cluster_server"><rect codeLine="23" fill="#3D176E" height="39.7891" id="azure_cosmos_db_postgresql_cluster_server" rx="2.5" ry="2.5" style="stroke:#000D19;stroke-width:0.5;" width="407" x="120.5" y="328.58"/><ellipse cx="135.5" cy="348.4745" fill="#ADD1B2" rx="11" ry="11" style="stroke:#181818;stroke-width:1.0;"/><path d="M138.4688,354.1152 Q137.8906,354.412 137.25,354.5527 Q136.6094,354.7089 135.9063,354.7089 Q133.4063,354.7089 132.0781,353.0683 Q130.7656,351.412 130.7656,348.287 Q130.7656,345.162 132.0781,343.5058 Q133.4063,341.8495 135.9063,341.8495 Q136.6094,341.8495 137.25,342.0058 Q137.9063,342.162 138.4688,342.4589 L138.4688,345.1777 Q137.8438,344.5995 137.25,344.3339 Q136.6563,344.0527 136.0313,344.0527 Q134.6875,344.0527 134,345.1308 Q133.3125,346.1933 133.3125,348.287 Q133.3125,350.3808 134,351.4589 Q134.6875,352.5214 136.0313,352.5214 Q136.6563,352.5214 137.25,352.2558 Q137.8438,351.9745 138.4688,351.3964 L138.4688,354.1152 Z " fill="#000000"/><text fill="#D9B8FF" font-family="Helvetica" font-size="17" lengthAdjust="spacing" textLength="365" x="154.5" y="354.3598">azure_cosmos_db_postgresql_cluster_server</text></g><!--class azure_proxy_resource--><g id="elem_azure_proxy_resource"><rect codeLine="26" fill="#3D176E" height="39.7891" id="azure_proxy_resource" rx="2.5" ry="2.5" style="stroke:#000D19;stroke-width:0.5;" width="224" x="7" y="167.79"/><ellipse cx="22" cy="187.6845" fill="#ADD1B2" rx="11" ry="11" style="stroke:#181818;stroke-width:1.0;"/><path d="M24.9688,193.3252 Q24.3906,193.622 23.75,193.7627 Q23.1094,193.9189 22.4063,193.9189 Q19.9063,193.9189 18.5781,192.2783 Q17.2656,190.622 17.2656,187.497 Q17.2656,184.372 18.5781,182.7158 Q19.9063,181.0595 22.4063,181.0595 Q23.1094,181.0595 23.75,181.2158 Q24.4063,181.372 24.9688,181.6689 L24.9688,184.3877 Q24.3438,183.8095 23.75,183.5439 Q23.1563,183.2627 22.5313,183.2627 Q21.1875,183.2627 20.5,184.3408 Q19.8125,185.4033 19.8125,187.497 Q19.8125,189.5908 20.5,190.6689 Q21.1875,191.7314 22.5313,191.7314 Q23.1563,191.7314 23.75,191.4658 Q24.3438,191.1845 24.9688,190.6064 L24.9688,193.3252 Z " fill="#000000"/><text fill="#D9B8FF" font-family="Helvetica" font-size="17" lengthAdjust="spacing" textLength="182" x="41" y="193.5698">azure_proxy_resource</text></g><!--class database--><g id="elem_database"><rect codeLine="29" fill="#3D176E" height="39.7891" id="database" rx="2.5" ry="2.5" style="stroke:#000D19;stroke-width:0.5;" width="117" x="265.5" y="167.79"/><ellipse cx="280.5" cy="187.6845" fill="#ADD1B2" rx="11" ry="11" style="stroke:#181818;stroke-width:1.0;"/><path d="M283.4688,193.3252 Q282.8906,193.622 282.25,193.7627 Q281.6094,193.9189 280.9063,193.9189 Q278.4063,193.9189 277.0781,192.2783 Q275.7656,190.622 275.7656,187.497 Q275.7656,184.372 277.0781,182.7158 Q278.4063,181.0595 280.9063,181.0595 Q281.6094,181.0595 282.25,181.2158 Q282.9063,181.372 283.4688,181.6689 L283.4688,184.3877 Q282.8438,183.8095 282.25,183.5439 Q281.6563,183.2627 281.0313,183.2627 Q279.6875,183.2627 279,184.3408 Q278.3125,185.4033 278.3125,187.497 Q278.3125,189.5908 279,190.6689 Q279.6875,191.7314 281.0313,191.7314 Q281.6563,191.7314 282.25,191.4658 Q282.8438,191.1845 283.4688,190.6064 L283.4688,193.3252 Z " fill="#000000"/><text fill="#D9B8FF" font-family="Helvetica" font-size="17" lengthAdjust="spacing" textLength="75" x="299.5" y="193.5698">database</text></g><!--class microsoft_resource--><g id="elem_microsoft_resource"><rect codeLine="32" fill="#3D176E" height="39.7891" id="microsoft_resource" rx="2.5" ry="2.5" style="stroke:#000D19;stroke-width:0.5;" width="200" x="418" y="167.79"/><ellipse cx="433" cy="187.6845" fill="#ADD1B2" rx="11" ry="11" style="stroke:#181818;stroke-width:1.0;"/><path d="M435.9688,193.3252 Q435.3906,193.622 434.75,193.7627 Q434.1094,193.9189 433.4063,193.9189 Q430.9063,193.9189 429.5781,192.2783 Q428.2656,190.622 428.2656,187.497 Q428.2656,184.372 429.5781,182.7158 Q430.9063,181.0595 433.4063,181.0595 Q434.1094,181.0595 434.75,181.2158 Q435.4063,181.372 435.9688,181.6689 L435.9688,184.3877 Q435.3438,183.8095 434.75,183.5439 Q434.1563,183.2627 433.5313,183.2627 Q432.1875,183.2627 431.5,184.3408 Q430.8125,185.4033 430.8125,187.497 Q430.8125,189.5908 431.5,190.6689 Q432.1875,191.7314 433.5313,191.7314 Q434.1563,191.7314 434.75,191.4658 Q435.3438,191.1845 435.9688,190.6064 L435.9688,193.3252 Z " fill="#000000"/><text fill="#D9B8FF" font-family="Helvetica" font-size="17" lengthAdjust="spacing" textLength="158" x="452" y="193.5698">microsoft_resource</text></g><!--class resource--><g id="elem_resource"><rect codeLine="35" fill="#3D176E" height="39.7891" id="resource" rx="2.5" ry="2.5" style="stroke:#000D19;stroke-width:0.5;" width="113" x="363.5" y="7"/><ellipse cx="378.5" cy="26.8945" fill="#ADD1B2" rx="11" ry="11" style="stroke:#181818;stroke-width:1.0;"/><path d="M381.4688,32.5352 Q380.8906,32.832 380.25,32.9727 Q379.6094,33.1289 378.9063,33.1289 Q376.4063,33.1289 375.0781,31.4883 Q373.7656,29.832 373.7656,26.707 Q373.7656,23.582 375.0781,21.9258 Q376.4063,20.2695 378.9063,20.2695 Q379.6094,20.2695 380.25,20.4258 Q380.9063,20.582 381.4688,20.8789 L381.4688,23.5977 Q380.8438,23.0195 380.25,22.7539 Q379.6563,22.4727 379.0313,22.4727 Q377.6875,22.4727 377,23.5508 Q376.3125,24.6133 376.3125,26.707 Q376.3125,28.8008 377,29.8789 Q377.6875,30.9414 379.0313,30.9414 Q379.6563,30.9414 380.25,30.6758 Q380.8438,30.3945 381.4688,29.8164 L381.4688,32.5352 Z " fill="#000000"/><text fill="#D9B8FF" font-family="Helvetica" font-size="17" lengthAdjust="spacing" textLength="71" x="397.5" y="32.7798">resource</text></g><!--reverse link azure_proxy_resource to azure_cosmos_db_postgresql_cluster_server--><g id="link_azure_proxy_resource_azure_cosmos_db_postgresql_cluster_server"><path codeLine="38" d="M157.9601,218.8629 C197.3601,249.3829 259.73,297.69 299.18,328.25 " fill="none" id="azure_proxy_resource-backto-azure_cosmos_db_postgresql_cluster_server" style="stroke:#FFAF37;stroke-width:2.0;"/><polygon fill="none" points="143.73,207.84,154.2858,223.6063,161.6344,214.1195,143.73,207.84" style="stroke:#FFAF37;stroke-width:2.0;"/></g><!--reverse link database to azure_cosmos_db_postgresql_cluster_server--><g id="link_database_azure_cosmos_db_postgresql_cluster_server"><path codeLine="39" d="M324,225.84 C324,256.36 324,297.69 324,328.25 " fill="none" id="database-backto-azure_cosmos_db_postgresql_cluster_server" style="stroke:#FFAF37;stroke-width:2.0;"/><polygon fill="none" points="324,207.84,318,225.84,330,225.84,324,207.84" style="stroke:#FFAF37;stroke-width:2.0;"/></g><!--reverse link microsoft_resource to azure_cosmos_db_postgresql_cluster_server--><g id="link_microsoft_resource_azure_cosmos_db_postgresql_cluster_server"><path codeLine="40" d="M480.6706,219.2405 C443.3806,249.7605 384.82,297.69 347.48,328.25 " fill="none" id="microsoft_resource-backto-azure_cosmos_db_postgresql_cluster_server" style="stroke:#FFAF37;stroke-width:2.0;"/><polygon fill="none" points="494.6,207.84,476.8704,214.5974,484.4708,223.8837,494.6,207.84" style="stroke:#FFAF37;stroke-width:2.0;"/></g><!--reverse link resource to database--><g id="link_resource_database"><path codeLine="41" d="M399.1079,62.4541 C380.6579,92.9741 354.1,136.9 335.62,167.46 " fill="none" id="resource-backto-database" style="stroke:#FFAF37;stroke-width:2.0;"/><polygon fill="none" points="408.42,47.05,393.9732,59.35,404.2426,65.5581,408.42,47.05" style="stroke:#FFAF37;stroke-width:2.0;"/></g><!--reverse link resource to microsoft_resource--><g id="link_resource_microsoft_resource"><path codeLine="42" d="M441.275,62.3667 C460.115,92.8867 487.27,136.9 506.14,167.46 " fill="none" id="resource-backto-microsoft_resource" style="stroke:#FFAF37;stroke-width:2.0;"/><polygon fill="none" points="431.82,47.05,436.1694,65.5184,446.3806,59.2151,431.82,47.05" style="stroke:#FFAF37;stroke-width:2.0;"/></g><!--SRC=[bP1DJy9048Rl_HMRS2O1YGA95oGnUY56l3VRtLdOqExKcIq8wd-NYf1jouTSttbcvfcPMmq2ijolHGPP0iGHBwpB9SbCZ8XmDSOKIRICaQRNhnSVqVcBm4Hc89uWNOAtIjQ9jxbL2mVCuYOeFKYrc14MJk_6UvAEjoLmFg36gMGUUKysAJm4CdgO38ofa_MXhPxkzk-WWI5fe3-aq-dexh2EN5nrzku3CRKR4DtmQHFqqD1ihFYbpbgMH23PE7HVF-du8hMsRYPkW-nrvqGEg99FvrBZggIDJ3bSmnu8qAzp63UkWk50c_vH-FaK7AdoTK9k2e9O8MV8iKxY7DdF2FWzZLLQb7DY1bfkDJ-ZwBlIb1D-hECjYmKf2EjQUfb8hcIPLOICnX_jg6P7vzz_jTlj__j61ubh6u-ONZkYrhXNgUVDJT4F]--></g></svg>

<svg xmlns="http://www.w3.org/2000/svg" width="625" height="374" viewBox="0 0 625 374"><rect width="407" height="39.789" x="120.5" y="328.58" fill="#3D176E" rx="2.5" ry="2.5" style="stroke:#000d19;stroke-width:.5"/><circle cx="135.5" cy="348.474" r="11" fill="#ADD1B2" style="stroke:#181818;stroke-width:1"/><path d="M138.469 354.115q-.578.297-1.219.438-.64.156-1.344.156-2.5 0-3.828-1.64-1.312-1.657-1.312-4.782t1.312-4.781q1.328-1.656 3.828-1.656.703 0 1.344.156.656.156 1.219.453v2.719q-.625-.579-1.219-.844-.594-.281-1.219-.281-1.344 0-2.031 1.078-.687 1.062-.687 3.156t.687 3.172q.688 1.062 2.031 1.062.625 0 1.219-.265.594-.281 1.219-.86z"/><text x="154.5" y="354.36" fill="#D9B8FF" font-family="Helvetica" font-size="17" textLength="365">azure_cosmos_db_postgresql_cluster_server</text><rect width="224" height="39.789" x="7" y="167.79" fill="#3D176E" rx="2.5" ry="2.5" style="stroke:#000d19;stroke-width:.5"/><circle cx="22" cy="187.685" r="11" fill="#ADD1B2" style="stroke:#181818;stroke-width:1"/><path d="M24.969 193.325q-.578.297-1.219.438-.64.156-1.344.156-2.5 0-3.828-1.64-1.312-1.657-1.312-4.782t1.312-4.781q1.328-1.656 3.828-1.656.703 0 1.344.156.656.156 1.219.453v2.719q-.625-.578-1.219-.844-.594-.281-1.219-.281-1.343 0-2.031 1.078-.687 1.062-.687 3.156t.687 3.172q.688 1.062 2.031 1.062.625 0 1.219-.265.594-.281 1.219-.86z"/><text x="41" y="193.57" fill="#D9B8FF" font-family="Helvetica" font-size="17" textLength="182">azure_proxy_resource</text><rect width="117" height="39.789" x="265.5" y="167.79" fill="#3D176E" rx="2.5" ry="2.5" style="stroke:#000d19;stroke-width:.5"/><circle cx="280.5" cy="187.685" r="11" fill="#ADD1B2" style="stroke:#181818;stroke-width:1"/><path d="M283.469 193.325q-.578.297-1.219.438-.64.156-1.344.156-2.5 0-3.828-1.64-1.312-1.657-1.312-4.782t1.312-4.781q1.328-1.656 3.828-1.656.703 0 1.344.156.656.156 1.219.453v2.719q-.625-.578-1.219-.844-.594-.281-1.219-.281-1.344 0-2.031 1.078-.687 1.062-.687 3.156t.687 3.172q.688 1.062 2.031 1.062.625 0 1.219-.265.594-.281 1.219-.86z"/><text x="299.5" y="193.57" fill="#D9B8FF" font-family="Helvetica" font-size="17" textLength="75">database</text><rect width="200" height="39.789" x="418" y="167.79" fill="#3D176E" rx="2.5" ry="2.5" style="stroke:#000d19;stroke-width:.5"/><circle cx="433" cy="187.685" r="11" fill="#ADD1B2" style="stroke:#181818;stroke-width:1"/><path d="M435.969 193.325q-.578.297-1.219.438-.64.156-1.344.156-2.5 0-3.828-1.64-1.312-1.657-1.312-4.782t1.312-4.781q1.328-1.656 3.828-1.656.703 0 1.344.156.656.156 1.219.453v2.719q-.625-.578-1.219-.844-.594-.281-1.219-.281-1.344 0-2.031 1.078-.687 1.062-.687 3.156t.687 3.172q.688 1.062 2.031 1.062.625 0 1.219-.265.594-.281 1.219-.86z"/><text x="452" y="193.57" fill="#D9B8FF" font-family="Helvetica" font-size="17" textLength="158">microsoft_resource</text><rect width="113" height="39.789" x="363.5" y="7" fill="#3D176E" rx="2.5" ry="2.5" style="stroke:#000d19;stroke-width:.5"/><circle cx="378.5" cy="26.895" r="11" fill="#ADD1B2" style="stroke:#181818;stroke-width:1"/><path d="M381.469 32.535q-.578.297-1.219.438-.64.156-1.344.156-2.5 0-3.828-1.64-1.312-1.657-1.312-4.782t1.312-4.781q1.328-1.656 3.828-1.656.703 0 1.344.156.656.156 1.219.453v2.719q-.625-.578-1.219-.844-.594-.281-1.219-.281-1.344 0-2.031 1.078-.687 1.062-.687 3.156t.687 3.172q.688 1.062 2.031 1.062.625 0 1.219-.265.594-.281 1.219-.86z"/><text x="397.5" y="32.78" fill="#D9B8FF" font-family="Helvetica" font-size="17" textLength="71">resource</text><path fill="none" d="M157.96 218.863c39.4 30.52 101.77 78.827 141.22 109.387M143.73 207.84l10.556 15.766 7.348-9.487zm180.27 18v102.41m0-120.41-6 18h12zm156.67 11.4L347.48 328.25M494.6 207.84l-17.73 6.757 7.6 9.287zM399.108 62.454C380.658 92.974 354.1 136.9 335.62 167.46m72.8-120.41-14.447 12.3 10.27 6.208zm32.855 15.317c18.84 30.52 45.995 74.533 64.865 105.093M431.82 47.05l4.35 18.468 10.21-6.303z" style="stroke:#ffaf37;stroke-width:2"/></svg>
